!!!OTL: Huerfana Virginia
**kern
*I"Guitarra acústica
*I'Guit. ac.
!!pagebreak:original
*clefG2
*Trd0c0
*k[]
*C:
*M6/8
=1
!LO:TX:t=[quarter]=120
16eeLL
16ff
16ee
16ffJ
8eeJ
8eeL
8dd
8ccJ
=2
8cc
(4b
8bL)
8b
8cc#XJ
=3
8ddL
8ee
8ffJ
4ee
8dd
=4
4.cc
8r
8aL 8cc
8bJ 8dd
=5
8ccL 8ee
8cc 8ee
8ccJ 8aa
4ee 4gg
8a 8cc
=6
8cc 8ee
((4b 4dd
4b 4dd))
8a 8cc
!!linebreak:original
=7
8gL 8b
8a 8cc
8bJ 8dd
4ee 4gg
8b 8dd
=8
4.a 4.cc
4.e
=9!|:
8ee
4cc
4cc
8a
=10
8aL
8g#X
(8bJ
4b)
8d
=11
8eL
8e
(8gJ
4g)
8d
=12
4.c
8r
8cL
8dJ
=13
8eL
8e
(8aJ
4a)
8g
!!linebreak:original
=14
8eL
8e
(8aJ
4a)
8g
=15
8eL
8e
(8aJ
4a)
8d
=16
4.c
8r
8cL
8dJ
=17
8eL
8e
(8aJ
4a)
8g
=18
8eL
8e
(8aJ
4a)
8g
=19
8eL
8e
(8aJ
4a)
8g
!!linebreak:original
=20
(4.c
8c)
4r
=21:|!
4.c
8r
8eL
8dJ
=22
8f
4e
8eL
8d
8cJ
=23
8c
(4B
8BL)
8B
8c#XJ
=24
8dL
8e
8fJ
4e
8d
=25
4.c
8r
8cL
8dJ
=26
8eL
8e
8ccJ
4a
8g
!!linebreak:original
=27
8eL
8e
8ccJ
4a
8g#X
=28
8bL
8a
(8eJ
8eL)
8.d
16dJk
=29
4.c
8r
8cL
8dJ
=30
8eL
8e
8ccJ
4a
8g
!!linebreak:original
=31
8eL
8e
8ccJ
4a
8g#X
=32
8bL
8a
8eJ
8eL
8.d
16dJk
=33
(4.c
8c)
!LO:TX:a:B:t=D.S. al Fine
4r
==
*-